Quickit/src/img/zone--pc.svg

<svg width="890" height="118" viewBox="0 0 890 118" fill="none" preserveAspectRatio="none"  xmlns="http://www.w3.org/2000/svg">
<path opacity="0.07" d="M874.522 57.2462L886.337 54.5701C888.214 54.145 890 55.5717 890 57.496V115C890 116.657 888.657 118 887 118H3C1.34314 118 0 116.657 0 115V4.78311C0 2.9143 1.69019 1.50031 3.5296 1.83022L14.1981 3.74363C14.6167 3.81872 15.0466 3.80393 15.4591 3.70023L29.3467 0.209C29.8901 0.0724003 30.4609 0.0906964 30.9944 0.261816L45.1494 4.80188C45.3973 4.88143 45.6547 4.92834 45.9147 4.94143L61.3792 5.71982L76.2126 4.92171L91.8179 5.70719C91.9849 5.7156 92.1524 5.71002 92.3186 5.6905L107.563 3.90007C107.804 3.87183 108.047 3.8728 108.287 3.90296L122.759 5.71982L137.691 7.79096C137.965 7.82889 138.242 7.82889 138.516 7.79096L153.448 5.71982L168.793 3.85756L182.203 0.370131C183.101 0.136649 184.056 0.331646 184.791 0.898307L198.379 11.3819C198.768 11.6818 199.224 11.8818 199.708 11.9641L214.828 14.5367L229.889 19.2995C230.077 19.3592 230.271 19.4 230.468 19.4215L244.364 20.9358C244.787 20.9819 245.215 20.9374 245.62 20.8053L260.039 16.0978C260.577 15.9224 261.153 15.9023 261.701 16.04L275.004 19.3809C275.459 19.4951 275.88 19.7142 276.235 20.0206L290.235 32.1177C291.049 32.8213 292.178 33.0348 293.193 32.6772L305.839 28.2214C306.815 27.8776 307.899 28.0608 308.708 28.7061L321.743 39.1094C322.071 39.3718 322.452 39.5622 322.859 39.668L336.447 43.2016C337.179 43.3921 337.957 43.2987 338.623 42.9401L350.581 36.5059C351.686 35.9114 353.044 36.0672 353.986 36.8965L366.71 48.1049C367.651 48.9338 369.009 49.0899 370.113 48.4962L382.52 41.8281C383.225 41.4496 384.051 41.3678 384.816 41.601L398.454 45.7593L414.31 48.9518L427.861 51.343C428.367 51.4323 428.887 51.3902 429.372 51.2207L444.151 46.0559C444.705 45.8624 445.303 45.8354 445.872 45.9782L459.833 49.4839L474.791 51.4289C475.048 51.4623 475.308 51.4623 475.565 51.4289L489.983 49.5541C490.34 49.5077 490.703 49.5259 491.053 49.608L505.146 52.9065C505.62 53.0174 506.114 53.0114 506.585 52.8889L521.724 48.9518L537.58 45.7593L551.201 41.5848C551.662 41.4435 552.15 41.4154 552.624 41.5029L567.759 44.2961L582.592 48.9518L597.41 52.9338C597.758 53.0274 598.121 53.0575 598.48 53.0224L614.305 51.4792L628.634 49.0377C628.967 48.9808 629.308 48.9808 629.642 49.0377L643.971 51.4792L659.439 52.0253C660.026 52.046 660.606 51.894 661.108 51.5881L672.778 44.4675C673.635 43.9449 674.696 43.8851 675.606 44.3082L690.427 51.1995C690.823 51.3837 691.255 51.4792 691.692 51.4792H705.351L721.207 49.4839L736.552 45.4933L751.861 43.6952C752.223 43.6528 752.589 43.6764 752.942 43.7651L766.511 47.1721C766.99 47.2925 767.492 47.2925 767.972 47.1721L782.075 43.631L796.959 39.8811C797.891 39.6464 798.879 39.8722 799.616 40.4885L812.484 51.2447C812.67 51.4004 812.875 51.533 813.093 51.6394L828.636 59.2182C828.964 59.3782 829.319 59.477 829.682 59.5097L843.434 60.7428C843.785 60.7744 844.14 60.7435 844.481 60.6518L858.365 56.9167C858.653 56.8393 858.95 56.8052 859.248 56.8155L873.756 57.3185C874.013 57.3275 874.271 57.3032 874.522 57.2462Z" fill="#F12052"/>
</svg>

<svg xmlns="http://www.w3.org/2000/svg" width="890" height="118" fill="none" preserveAspectRatio="none" xmlns:v="https://vecta.io/nano"><path opacity=".07" d="M874.522 57.246l11.815-2.676A3 3 0 0 1 890 57.496V115a3 3 0 0 1-3 3H3a3 3 0 0 1-3-3V4.783A3 3 0 0 1 3.53 1.83l10.669 1.913a3 3 0 0 0 1.261-.043L29.347.209a3 3 0 0 1 1.648.053l14.155 4.54a3 3 0 0 0 .765.14l15.464.778 14.833-.798 15.605.785a3 3 0 0 0 .501-.017l15.244-1.79c.241-.028.484-.027.724.003l14.472 1.817 14.932 2.071c.274.038.551.038.825 0l14.932-2.071 15.345-1.862L182.203.37a3 3 0 0 1 2.588.528l13.588 10.484a3 3 0 0 0 1.329.582l15.12 2.573 15.061 4.763a2.98 2.98 0 0 0 .579.122l13.896 1.514a3 3 0 0 0 1.256-.131l14.419-4.707a3 3 0 0 1 1.662-.058l13.303 3.341a3 3 0 0 1 1.231.64l14 12.097a3 3 0 0 0 2.958.559l12.646-4.456a3 3 0 0 1 2.869.485l13.035 10.403c.328.262.709.453 1.116.559l13.588 3.534a3 3 0 0 0 2.176-.261l11.958-6.434a3 3 0 0 1 3.405.391l12.724 11.208a3 3 0 0 0 3.403.391l12.407-6.668a3 3 0 0 1 2.296-.227l13.638 4.158 15.856 3.192 13.551 2.391a3 3 0 0 0 1.511-.122l14.779-5.165a3 3 0 0 1 1.721-.078l13.961 3.506 14.958 1.945a3 3 0 0 0 .774 0l14.418-1.875c.357-.046.72-.028 1.07.054l14.093 3.299a3 3 0 0 0 1.439-.018l15.139-3.937 15.856-3.192 13.621-4.175a3 3 0 0 1 1.423-.082l15.135 2.793 14.833 4.656 14.818 3.982a3 3 0 0 0 1.07.089l15.825-1.543 14.329-2.441c.333-.057.674-.057 1.008 0l14.329 2.441 15.468.546c.587.021 1.167-.131 1.669-.437l11.67-7.121a3 3 0 0 1 2.828-.159l14.821 6.891a3 3 0 0 0 1.265.28h13.659l15.856-1.995 15.345-3.991 15.309-1.798a3 3 0 0 1 1.081.07l13.569 3.407a3 3 0 0 0 1.461 0l14.103-3.541 14.884-3.75a3 3 0 0 1 2.657.607l12.868 10.756a3 3 0 0 0 .609.395l15.543 7.579a3 3 0 0 0 1.046.291l13.752 1.233a3 3 0 0 0 1.047-.091l13.884-3.735a3 3 0 0 1 .883-.101l14.508.503a2.99 2.99 0 0 0 .766-.072z" fill="#f12052"/></svg>
